X:1
T:9 Lieder and Songs, Op.32
T:Ich schleich umher betrübt
T:3. Ich schleich umher betrübt
T:Johannes Brahms
T:August von Platen
T:9 Lieder and Songs, Op.32
T:Creative Commons copyright waiver (CC0 1.0 Universal) 
C:Johannes Brahms
Z:August von Platen
Z:Creative Commons copyright waiver (CC0 1.0 Universal)
Z:
L:1/8
M:3/4
K:F
V:1 treble nm="Voice" snm="Vo."
V:1
 D2 | D4 D2 | F4 F2 | E4 E2 | G4 B2 | A4 B2 | A2 ^G2 =G2 | F4 D2 | E4 z2 | D2 G2 B2 | c4 F2 | %11
w: Ich|schleich um-|her be-|trübt und|stumm, du|fragst, o|fra- ge mich|nicht war-|um?|Das Herz er-|schüt- tert|
 F2 A2 c2 | _d6 | ^c2 c2 =d2 | d2 B2 G2 | A2 F2 E2 | G4 z2 | z2 z2 B2 | A2 F2 E2 | D4 z2 |] %20
w: so man- che|Pein!|und könnt ich|je * zu|dü- * ster|sein,|zu|dü- * ster|sein?|

